X:12042
%15139
T:Se\'an Bu\'i
T:Over the Water to Charlie
R:slide
Z:id:hn-slide-31
M:6/8
K:Cmaj
CEG AEG|ABc GEG|CEG AEG|A2B c2C|
CEG AEG|ABc GEG|edc dcB|1 A2B c2C:|2 A2B c2d||
|:edc dcB|ABc GEG|edc dcB|A2
